X: 6599
T: Caucus, The
R: reel
M: 4/4
K: Gmajor
GE|:DG (3Bcd g2gd|egdB A3d|ed (3Bcd gabg|a2ge g2GE|
DG (3Bcd g2gd|egdB A2GA|B3B AGEG|1 GEDE G2GE:|2 GEDE G3a||
|:bgg2 age2|gee2 dega|bgg2 a2bg|abge g3a|
bgg2 age2|gee2 deGA|B3B AGEG|1 GEDE G3a:|2 GEDE G3d||
|:ed (3Bcd ed (3Bcd|egdB A2 (3Bcd|e2ge ed (3Bcd|gabg a2g2|
ed (3Bcd ed (3Bcd|egdB A2GA|B3B AGEG|1 GEDE G3d:|2 GEDE G3E||

